X: 66
T:Lady of Ardross
% Nottingham Music Database
S:Trad arr Hamish, via EF
M:4/4
L:1/4
K:C
(3G/2A/2B/2|"C"c3c|"C/e""Em"e2 dc|"F"cd/2c/2 BA|"G"G2 (3GAB|"Am"c3c|"Em"g2 fe|\
"Dm"A4|"G"B3/2A/2 B/2d3/2|
"C"c3c|"C/e""Em"e2 dc|"F"cd/2c/2 BA|"Em"G2 "G"G3/2F/2|"C"EG "F"AG|\
"C/g"G/2c3/2 "G"cB| [1"F"c4-|"F"c3 :|
 [2"F"c4-|"F"c2 gf||"C"e/2c3/2 ce|"Dm"f3/2e/2 c/2G3/2|"F"cc -cB|"G"G2 g3/2f/2|
"C"e/2c3/2 "F"ag|"Am"c'3/2a/2 g/2e3/2|"Dm"g4-|"G"g2 g3/2f/2|"C"e/2c3/2 ce|\
"Dm"f3/2e/2 c/2G3/2|
"F"cc -cB|"G"G2 -GF|"C"EG "F"A/2G3/2|"C/g"G/2c3/2 "G"cB|"F"c4-|"F"c2 g3/2f/2||
"C"e/2c3/2 ce|"Dm"f3/2e/2 c/2G3/2|"F"cc -cB|"G"G2 g3/2f/2|"C"e/2c3/2 "F"ag|\
"Am"c'3/2a/2 g/2e3/2|"Dm"d4-|"G"d2 GA/2B/2|
"Am"c3c|"Em"e2 dc|"F"cd/2c/2 "Em"BG|"Dm"F2 "G"EF|"Em"G3/2F/2 "F"GA|\
"C/g"G/2c3/2 "G"cB|"F"c2 -"C"c-"G"c-|"C"c3||<end>
<start>
